polaris-icons/icons/new-icons/CancelMajor.svg

<svg width="20" height="20" viewBox="0 0 20 20" fill="none" xmlns="http://www.w3.org/2000/svg">
<path d="M12.7197 13.7803C13.0126 14.0732 13.4874 14.0732 13.7803 13.7803C14.0732 13.4874 14.0732 13.0126 13.7803 12.7197L11.0607 10L13.7803 7.28033C14.0732 6.98744 14.0732 6.51256 13.7803 6.21967C13.4874 5.92678 13.0126 5.92678 12.7197 6.21967L10 8.93934L7.28033 6.21967C6.98744 5.92678 6.51256 5.92678 6.21967 6.21967C5.92678 6.51256 5.92678 6.98744 6.21967 7.28033L8.93934 10L6.21967 12.7197C5.92678 13.0126 5.92678 13.4874 6.21967 13.7803C6.51256 14.0732 6.98744 14.0732 7.28033 13.7803L10 11.0607L12.7197 13.7803Z" fill="#4A4A4A"/>
</svg>

<svg viewBox="0 0 20 20" xmlns="http://www.w3.org/2000/svg"><path d="M12.72 13.78a.75.75 0 1 0 1.06-1.06l-2.72-2.72 2.72-2.72a.75.75 0 0 0-1.06-1.06l-2.72 2.72-2.72-2.72a.75.75 0 0 0-1.06 1.06l2.72 2.72-2.72 2.72a.75.75 0 1 0 1.06 1.06l2.72-2.72 2.72 2.72Z" fill="#5C5F62"/></svg>
